public/icons/play.svg

<svg width="18" height="18" viewBox="0 0 18 18" fill="none" xmlns="http://www.w3.org/2000/svg">
<path d="M1 14.8212V3.17955C1 2.21958 1 1.73907 1.21345 1.45504C1.39974 1.20714 1.68688 1.04438 2.00566 1.00547C2.37077 0.960901 2.81858 1.18693 3.71292 1.63836L15.2448 7.4592L15.249 7.46096C16.2373 7.95984 16.7317 8.20939 16.8939 8.54201C17.0354 8.83217 17.0354 9.16711 16.8939 9.45727C16.7315 9.79036 16.2359 10.0409 15.2448 10.5412L3.71292 16.3621C2.81794 16.8138 2.3709 17.039 2.00566 16.9944C1.68688 16.9555 1.39974 16.7927 1.21345 16.5449C1 16.2608 1 15.7812 1 14.8212Z" stroke="#0B0C0F" stroke-width="2" stroke-linecap="round" stroke-linejoin="round"/>
</svg>

<svg xmlns="http://www.w3.org/2000/svg" width="18" height="18" fill="none"><path stroke="#0b0c0f" stroke-linecap="round" stroke-linejoin="round" stroke-width="2" d="M1 14.821V3.18c0-.96 0-1.44.213-1.725.187-.248.474-.41.793-.45.365-.044.813.182 1.707.633L15.245 7.46l.004.002c.988.499 1.483.748 1.645 1.081.141.29.141.625 0 .915-.162.333-.658.584-1.65 1.084L3.714 16.362c-.895.452-1.342.677-1.707.632a1.17 1.17 0 0 1-.793-.45C1 16.262 1 15.782 1 14.822"/></svg>
